Newaita-dark/actions/scalable/amarok_cart_remove.svg

<?xml version="1.0" encoding="UTF-8"?>
<svg xmlns="http://www.w3.org/2000/svg" xmlns:xlink="http://www.w3.org/1999/xlink" width="512pt" height="512pt" viewBox="0 0 512 512" version="1.1">
<g id="surface1">
<path style=" stroke:none;fill-rule:nonzero;fill:rgb(47.058824%,56.470591%,61.176473%);fill-opacity:1;" d="M 42.335938 40.917969 C 36.566406 40.839844 31.203125 43.871094 28.292969 48.855469 C 25.386719 53.839844 25.386719 60.003906 28.292969 64.988281 C 31.203125 69.972656 36.566406 73.003906 42.335938 72.921875 L 82.660156 72.921875 L 153.792969 367.621094 C 155.082031 373.234375 159.289062 377.722656 164.808594 379.371094 C 170.328125 381.019531 176.304688 379.578125 180.464844 375.59375 C 184.621094 371.609375 186.316406 365.695312 184.90625 360.113281 L 176.898438 326.945312 L 423.375 326.945312 C 430.714844 326.945312 437.117188 321.949219 438.898438 314.828125 L 463.683594 215.6875 L 430.695312 215.6875 L 410.878906 294.945312 L 169.171875 294.945312 L 136.019531 157.597656 L 296.363281 157.597656 L 296.363281 125.597656 L 128.296875 125.597656 L 110.8125 53.167969 C 109.078125 45.984375 102.648438 40.921875 95.257812 40.917969 Z M 42.335938 40.917969 "/>
<path style=" stroke:none;fill-rule:nonzero;fill:rgb(74.117649%,74.117649%,74.117649%);fill-opacity:1;" d="M 179.933594 363.867188 C 148.359375 363.867188 122.316406 386.679688 117.304688 416.789062 L 100.550781 416.789062 C 91.753906 416.789062 84.675781 423.871094 84.675781 432.667969 C 84.675781 441.460938 91.753906 448.542969 100.550781 448.542969 L 120.019531 448.542969 C 128.703125 473.253906 152.183594 490.878906 179.933594 490.878906 C 207.820312 490.878906 231.394531 473.085938 239.972656 448.183594 C 241.089844 448.417969 242.246094 448.542969 243.441406 448.542969 L 306.945312 448.542969 C 308.136719 448.542969 309.296875 448.417969 310.414062 448.183594 C 318.992188 473.085938 342.566406 490.878906 370.453125 490.878906 C 398.203125 490.878906 421.683594 473.253906 430.367188 448.542969 L 449.835938 448.542969 C 458.628906 448.542969 465.710938 441.460938 465.710938 432.667969 C 465.710938 423.871094 458.628906 416.789062 449.835938 416.789062 L 433.082031 416.789062 C 428.070312 386.679688 402.027344 363.867188 370.453125 363.867188 C 338.871094 363.867188 312.820312 386.691406 307.816406 416.8125 C 307.527344 416.796875 307.238281 416.789062 306.945312 416.789062 L 243.441406 416.789062 C 243.148438 416.789062 242.855469 416.796875 242.566406 416.8125 C 237.566406 386.691406 211.515625 363.867188 179.933594 363.867188 Z M 179.933594 395.621094 C 197.523438 395.621094 211.6875 409.78125 211.6875 427.375 C 211.6875 444.964844 197.523438 459.125 179.933594 459.125 C 162.34375 459.125 148.179688 444.964844 148.179688 427.375 C 148.179688 409.78125 162.34375 395.621094 179.933594 395.621094 Z M 370.453125 395.621094 C 388.042969 395.621094 402.203125 409.78125 402.203125 427.375 C 402.203125 444.964844 388.042969 459.125 370.453125 459.125 C 352.859375 459.125 338.699219 444.964844 338.699219 427.375 C 338.699219 409.78125 352.859375 395.621094 370.453125 395.621094 Z M 370.453125 395.621094 "/>
<path style=" stroke:none;fill-rule:nonzero;fill:rgb(93.725491%,32.549021%,31.37255%);fill-opacity:1;" d="M 343.992188 93.96875 L 471.003906 93.96875 C 479.773438 93.96875 486.878906 101.074219 486.878906 109.84375 C 486.878906 118.613281 479.773438 125.71875 471.003906 125.71875 L 343.992188 125.71875 C 335.222656 125.71875 328.113281 118.613281 328.113281 109.84375 C 328.113281 101.074219 335.222656 93.96875 343.992188 93.96875 Z M 343.992188 93.96875 "/>
</g>
</svg>

<svg xmlns="http://www.w3.org/2000/svg" width="512pt" height="512pt" viewBox="0 0 512 512"><path d="M42.336 40.918a16.008 16.008 0 0 0-14.043 7.937 16.016 16.016 0 0 0 0 16.133 15.997 15.997 0 0 0 14.043 7.934H82.66l71.133 294.7a16.008 16.008 0 0 0 26.672 7.973 16.015 16.015 0 0 0 4.441-15.482l-8.008-33.168h246.477c7.34 0 13.742-4.996 15.523-12.117l24.786-99.14h-32.989l-19.816 79.257H169.172L136.02 157.598h160.343v-32H128.297l-17.484-72.43a16.01 16.01 0 0 0-15.555-12.25zm0 0" fill="#78909c"/><path d="M179.934 363.867c-31.575 0-57.618 22.813-62.63 52.922h-16.753a15.84 15.84 0 0 0-15.875 15.879 15.84 15.84 0 0 0 15.875 15.875h19.469c8.683 24.71 32.164 42.336 59.914 42.336a63.359 63.359 0 0 0 60.039-42.695c1.117.234 2.273.359 3.468.359h63.504a16.88 16.88 0 0 0 3.47-.36 63.359 63.359 0 0 0 60.038 42.696c27.75 0 51.23-17.625 59.914-42.336h19.469a15.843 15.843 0 0 0 15.875-15.875 15.843 15.843 0 0 0-15.875-15.879h-16.754c-5.012-30.11-31.055-52.922-62.629-52.922-31.582 0-57.633 22.824-62.637 52.945a16.1 16.1 0 0 0-.87-.023H243.44c-.293 0-.586.008-.875.024-5-30.122-31.05-52.946-62.632-52.946zm0 31.754c17.59 0 31.754 14.16 31.754 31.754 0 17.59-14.165 31.75-31.754 31.75-17.59 0-31.754-14.16-31.754-31.75 0-17.594 14.164-31.754 31.754-31.754zm190.52 0c17.589 0 31.75 14.16 31.75 31.754 0 17.59-14.161 31.75-31.75 31.75-17.595 0-31.755-14.16-31.755-31.75a31.682 31.682 0 0 1 31.754-31.754zm0 0" fill="#bdbdbd"/><path d="M343.992 93.969h127.012c8.77 0 15.875 7.105 15.875 15.875s-7.106 15.875-15.875 15.875H343.992c-8.77 0-15.879-7.106-15.879-15.875 0-8.77 7.11-15.875 15.88-15.875zm0 0" fill="#ef5350"/></svg>
